static/img/in-field/radios-dark.svg

<svg width="1087" height="158" viewBox="0 0 1087 158" fill="none" xmlns="http://www.w3.org/2000/svg">
<rect width="1087" height="158" fill="#353A40"/>
<path fill-rule="evenodd" clip-rule="evenodd" d="M497.75 46.5C497.75 38.91 503.91 32.75 511.5 32.75C519.09 32.75 525.25 38.91 525.25 46.5C525.25 54.09 519.09 60.25 511.5 60.25C503.91 60.25 497.75 54.09 497.75 46.5ZM500.5 46.5C500.5 52.5775 505.422 57.5 511.5 57.5C517.577 57.5 522.5 52.5775 522.5 46.5C522.5 40.4225 517.577 35.5 511.5 35.5C505.422 35.5 500.5 40.4225 500.5 46.5Z" fill="#90939F"/>
<g clip-path="url(#clip0_6887_93727)">
<path d="M541.159 55V39.2949H542.985V53.3457H549.914V55H541.159ZM559.811 55L559.456 53.3242H559.37C558.783 54.0618 558.196 54.5632 557.608 54.8281C557.028 55.0859 556.301 55.2148 555.428 55.2148C554.26 55.2148 553.344 54.9141 552.678 54.3125C552.019 53.7109 551.689 52.8551 551.689 51.7451C551.689 49.3675 553.591 48.1214 557.394 48.0068L559.392 47.9424V47.2119C559.392 46.2881 559.191 45.6077 558.79 45.1709C558.396 44.7269 557.762 44.5049 556.889 44.5049C555.908 44.5049 554.798 44.8057 553.559 45.4072L553.011 44.043C553.591 43.7279 554.225 43.4808 554.912 43.3018C555.607 43.1227 556.301 43.0332 556.996 43.0332C558.4 43.0332 559.438 43.3447 560.111 43.9678C560.792 44.5908 561.132 45.5898 561.132 46.9648V55H559.811ZM555.782 53.7432C556.892 53.7432 557.762 53.4388 558.393 52.8301C559.03 52.2214 559.349 51.3691 559.349 50.2734V49.21L557.565 49.2852C556.147 49.3353 555.123 49.5573 554.493 49.9512C553.87 50.3379 553.559 50.943 553.559 51.7666C553.559 52.4111 553.752 52.9017 554.139 53.2383C554.533 53.5749 555.08 53.7432 555.782 53.7432ZM570.545 43.0332C572.092 43.0332 573.291 43.5632 574.144 44.623C575.003 45.6758 575.433 47.1689 575.433 49.1025C575.433 51.0361 574.999 52.54 574.133 53.6143C573.273 54.6813 572.077 55.2148 570.545 55.2148C569.779 55.2148 569.077 55.0752 568.439 54.7959C567.809 54.5094 567.279 54.0726 566.85 53.4854H566.721L566.345 55H565.066V38.2852H566.85V42.3457C566.85 43.2552 566.821 44.0716 566.764 44.7949H566.85C567.68 43.6204 568.912 43.0332 570.545 43.0332ZM570.287 44.5264C569.07 44.5264 568.192 44.8773 567.655 45.5791C567.118 46.2738 566.85 47.4482 566.85 49.1025C566.85 50.7568 567.125 51.9421 567.677 52.6582C568.228 53.3672 569.113 53.7217 570.33 53.7217C571.426 53.7217 572.242 53.3242 572.779 52.5293C573.316 51.7272 573.585 50.5778 573.585 49.0811C573.585 47.5485 573.316 46.4062 572.779 45.6543C572.242 44.9023 571.411 44.5264 570.287 44.5264ZM583.782 55.2148C582.042 55.2148 580.667 54.6849 579.657 53.625C578.655 52.5651 578.153 51.0934 578.153 49.21C578.153 47.3122 578.619 45.8047 579.55 44.6875C580.488 43.5703 581.745 43.0117 583.32 43.0117C584.796 43.0117 585.963 43.4987 586.822 44.4727C587.682 45.4395 588.111 46.7178 588.111 48.3076V49.4355H580.001C580.037 50.8177 580.384 51.8669 581.043 52.583C581.709 53.2992 582.644 53.6572 583.847 53.6572C585.114 53.6572 586.368 53.3923 587.606 52.8623V54.4521C586.976 54.7243 586.378 54.9176 585.812 55.0322C585.254 55.154 584.577 55.2148 583.782 55.2148ZM583.299 44.5049C582.354 44.5049 581.598 44.8128 581.032 45.4287C580.474 46.0446 580.144 46.8968 580.044 47.9854H586.199C586.199 46.861 585.949 46.0016 585.447 45.4072C584.946 44.8057 584.23 44.5049 583.299 44.5049ZM593.195 55H591.412V38.2852H593.195V55Z" fill="white"/>
</g>
<g clip-path="url(#clip1_6887_93727)">
<path fill-rule="evenodd" clip-rule="evenodd" d="M511 98.6667C503.64 98.6667 497.667 104.64 497.667 112C497.667 119.36 503.64 125.333 511 125.333C518.36 125.333 524.333 119.36 524.333 112C524.333 104.64 518.36 98.6667 511 98.6667ZM511 105.333C507.32 105.333 504.333 108.32 504.333 112C504.333 115.68 507.32 118.667 511 118.667C514.68 118.667 517.667 115.68 517.667 112C517.667 108.32 514.68 105.333 511 105.333ZM500.333 112C500.333 117.893 505.107 122.667 511 122.667C516.893 122.667 521.667 117.893 521.667 112C521.667 106.107 516.893 101.333 511 101.333C505.107 101.333 500.333 106.107 500.333 112Z" fill="#019AEB"/>
<path d="M537.159 121V105.295H538.985V119.346H545.914V121H537.159ZM555.811 121L555.456 119.324H555.37C554.783 120.062 554.196 120.563 553.608 120.828C553.028 121.086 552.301 121.215 551.428 121.215C550.26 121.215 549.344 120.914 548.678 120.312C548.019 119.711 547.689 118.855 547.689 117.745C547.689 115.368 549.591 114.121 553.394 114.007L555.392 113.942V113.212C555.392 112.288 555.191 111.608 554.79 111.171C554.396 110.727 553.762 110.505 552.889 110.505C551.908 110.505 550.798 110.806 549.559 111.407L549.011 110.043C549.591 109.728 550.225 109.481 550.912 109.302C551.607 109.123 552.301 109.033 552.996 109.033C554.4 109.033 555.438 109.345 556.111 109.968C556.792 110.591 557.132 111.59 557.132 112.965V121H555.811ZM551.782 119.743C552.892 119.743 553.762 119.439 554.393 118.83C555.03 118.221 555.349 117.369 555.349 116.273V115.21L553.565 115.285C552.147 115.335 551.123 115.557 550.493 115.951C549.87 116.338 549.559 116.943 549.559 117.767C549.559 118.411 549.752 118.902 550.139 119.238C550.533 119.575 551.08 119.743 551.782 119.743ZM566.545 109.033C568.092 109.033 569.291 109.563 570.144 110.623C571.003 111.676 571.433 113.169 571.433 115.103C571.433 117.036 570.999 118.54 570.133 119.614C569.273 120.681 568.077 121.215 566.545 121.215C565.779 121.215 565.077 121.075 564.439 120.796C563.809 120.509 563.279 120.073 562.85 119.485H562.721L562.345 121H561.066V104.285H562.85V108.346C562.85 109.255 562.821 110.072 562.764 110.795H562.85C563.68 109.62 564.912 109.033 566.545 109.033ZM566.287 110.526C565.07 110.526 564.192 110.877 563.655 111.579C563.118 112.274 562.85 113.448 562.85 115.103C562.85 116.757 563.125 117.942 563.677 118.658C564.228 119.367 565.113 119.722 566.33 119.722C567.426 119.722 568.242 119.324 568.779 118.529C569.316 117.727 569.585 116.578 569.585 115.081C569.585 113.549 569.316 112.406 568.779 111.654C568.242 110.902 567.411 110.526 566.287 110.526ZM579.782 121.215C578.042 121.215 576.667 120.685 575.657 119.625C574.655 118.565 574.153 117.093 574.153 115.21C574.153 113.312 574.619 111.805 575.55 110.688C576.488 109.57 577.745 109.012 579.32 109.012C580.796 109.012 581.963 109.499 582.822 110.473C583.682 111.439 584.111 112.718 584.111 114.308V115.436H576.001C576.037 116.818 576.384 117.867 577.043 118.583C577.709 119.299 578.644 119.657 579.847 119.657C581.114 119.657 582.368 119.392 583.606 118.862V120.452C582.976 120.724 582.378 120.918 581.812 121.032C581.254 121.154 580.577 121.215 579.782 121.215ZM579.299 110.505C578.354 110.505 577.598 110.813 577.032 111.429C576.474 112.045 576.144 112.897 576.044 113.985H582.199C582.199 112.861 581.949 112.002 581.447 111.407C580.946 110.806 580.23 110.505 579.299 110.505ZM589.195 121H587.412V104.285H589.195V121Z" fill="white"/>
</g>
<defs>
<clipPath id="clip0_6887_93727">
<rect width="57" height="28" fill="white" transform="translate(539 32)"/>
</clipPath>
<clipPath id="clip1_6887_93727">
<rect width="97" height="32" fill="white" transform="translate(495 96)"/>
</clipPath>
</defs>
</svg>

<svg width="1087" height="158" fill="none" xmlns="http://www.w3.org/2000/svg"><path fill="#353A40" d="M0 0h1087v158H0z"/><path fill-rule="evenodd" clip-rule="evenodd" d="M497.75 46.5c0-7.59 6.16-13.75 13.75-13.75s13.75 6.16 13.75 13.75-6.16 13.75-13.75 13.75-13.75-6.16-13.75-13.75zm2.75 0c0 6.078 4.922 11 11 11 6.077 0 11-4.922 11-11s-4.923-11-11-11c-6.078 0-11 4.922-11 11z" fill="#90939F"/><g clip-path="url(#prefix__clip0_6887_93727)"><path d="M541.159 55V39.295h1.826v14.05h6.929V55h-8.755zm18.652 0l-.355-1.676h-.086c-.587.738-1.174 1.24-1.762 1.504-.58.258-1.307.387-2.18.387-1.168 0-2.084-.3-2.75-.903-.659-.601-.989-1.457-.989-2.567 0-2.377 1.902-3.624 5.705-3.738l1.998-.065v-.73c0-.924-.201-1.604-.602-2.041-.394-.444-1.028-.666-1.901-.666-.981 0-2.091.3-3.33.902l-.548-1.364a8.405 8.405 0 011.901-.741 8.318 8.318 0 012.084-.269c1.404 0 2.442.312 3.115.935.681.623 1.021 1.622 1.021 2.997V55h-1.321zm-4.029-1.257c1.11 0 1.98-.304 2.611-.913.637-.609.956-1.46.956-2.557V49.21l-1.784.075c-1.418.05-2.442.272-3.072.666-.623.387-.934.992-.934 1.816 0 .644.193 1.135.58 1.471.394.337.941.505 1.643.505zm14.763-10.71c1.547 0 2.746.53 3.599 1.59.859 1.053 1.289 2.546 1.289 4.48 0 1.933-.434 3.437-1.3 4.511-.86 1.067-2.056 1.6-3.588 1.6-.766 0-1.468-.139-2.106-.418a3.996 3.996 0 01-1.589-1.31h-.129L566.345 55h-1.279V38.285h1.784v4.06c0 .91-.029 1.727-.086 2.45h.086c.83-1.175 2.062-1.762 3.695-1.762zm-.258 1.493c-1.217 0-2.095.351-2.632 1.053-.537.695-.805 1.87-.805 3.523 0 1.655.275 2.84.827 3.556.551.71 1.436 1.064 2.653 1.064 1.096 0 1.912-.398 2.449-1.193.537-.802.806-1.951.806-3.448 0-1.533-.269-2.675-.806-3.427-.537-.752-1.368-1.128-2.492-1.128zm13.495 10.689c-1.74 0-3.115-.53-4.125-1.59-1.002-1.06-1.504-2.532-1.504-4.415 0-1.898.466-3.405 1.397-4.523.938-1.117 2.195-1.675 3.77-1.675 1.476 0 2.643.487 3.502 1.46.86.968 1.289 2.246 1.289 3.836v1.127h-8.11c.036 1.383.383 2.432 1.042 3.148.666.716 1.601 1.074 2.804 1.074 1.267 0 2.521-.265 3.759-.795v1.59a9.104 9.104 0 01-1.794.58c-.558.122-1.235.183-2.03.183zm-.483-10.71c-.945 0-1.701.308-2.267.924-.558.616-.888 1.468-.988 2.556h6.155c0-1.124-.25-1.983-.752-2.578-.501-.601-1.217-.902-2.148-.902zM593.195 55h-1.783V38.285h1.783V55z" fill="#fff"/></g><g clip-path="url(#prefix__clip1_6887_93727)"><path fill-rule="evenodd" clip-rule="evenodd" d="M511 98.667c-7.36 0-13.333 5.973-13.333 13.333s5.973 13.333 13.333 13.333 13.333-5.973 13.333-13.333S518.36 98.667 511 98.667zm0 6.666a6.67 6.67 0 00-6.667 6.667 6.67 6.67 0 006.667 6.667 6.67 6.67 0 006.667-6.667 6.67 6.67 0 00-6.667-6.667zM500.333 112c0 5.893 4.774 10.667 10.667 10.667s10.667-4.774 10.667-10.667-4.774-10.667-10.667-10.667-10.667 4.774-10.667 10.667z" fill="#019AEB"/><path d="M537.159 121v-15.705h1.826v14.051h6.929V121h-8.755zm18.652 0l-.355-1.676h-.086c-.587.738-1.174 1.239-1.762 1.504-.58.258-1.307.387-2.18.387-1.168 0-2.084-.301-2.75-.903-.659-.601-.989-1.457-.989-2.567 0-2.377 1.902-3.624 5.705-3.738l1.998-.065v-.73c0-.924-.201-1.604-.602-2.041-.394-.444-1.028-.666-1.901-.666-.981 0-2.091.301-3.33.902l-.548-1.364a8.409 8.409 0 011.901-.741 8.323 8.323 0 012.084-.269c1.404 0 2.442.312 3.115.935.681.623 1.021 1.622 1.021 2.997V121h-1.321zm-4.029-1.257c1.11 0 1.98-.304 2.611-.913.637-.609.956-1.461.956-2.557v-1.063l-1.784.075c-1.418.05-2.442.272-3.072.666-.623.387-.934.992-.934 1.816 0 .644.193 1.135.58 1.471.394.337.941.505 1.643.505zm14.763-10.71c1.547 0 2.746.53 3.599 1.59.859 1.053 1.289 2.546 1.289 4.48 0 1.933-.434 3.437-1.3 4.511-.86 1.067-2.056 1.601-3.588 1.601a5.2 5.2 0 01-2.106-.419 3.995 3.995 0 01-1.589-1.311h-.129l-.376 1.515h-1.279v-16.715h1.784v4.061c0 .909-.029 1.726-.086 2.449h.086c.83-1.175 2.062-1.762 3.695-1.762zm-.258 1.493c-1.217 0-2.095.351-2.632 1.053-.537.695-.805 1.869-.805 3.524 0 1.654.275 2.839.827 3.555.551.709 1.436 1.064 2.653 1.064 1.096 0 1.912-.398 2.449-1.193.537-.802.806-1.951.806-3.448 0-1.532-.269-2.675-.806-3.427-.537-.752-1.368-1.128-2.492-1.128zm13.495 10.689c-1.74 0-3.115-.53-4.125-1.59-1.002-1.06-1.504-2.532-1.504-4.415 0-1.898.466-3.405 1.397-4.522.938-1.118 2.195-1.676 3.77-1.676 1.476 0 2.643.487 3.502 1.461.86.966 1.289 2.245 1.289 3.835v1.128h-8.11c.036 1.382.383 2.431 1.042 3.147.666.716 1.601 1.074 2.804 1.074 1.267 0 2.521-.265 3.759-.795v1.59a9.077 9.077 0 01-1.794.58c-.558.122-1.235.183-2.03.183zm-.483-10.71c-.945 0-1.701.308-2.267.924-.558.616-.888 1.468-.988 2.556h6.155c0-1.124-.25-1.983-.752-2.578-.501-.601-1.217-.902-2.148-.902zM589.195 121h-1.783v-16.715h1.783V121z" fill="#fff"/></g><defs><clipPath id="prefix__clip0_6887_93727"><path fill="#fff" transform="translate(539 32)" d="M0 0h57v28H0z"/></clipPath><clipPath id="prefix__clip1_6887_93727"><path fill="#fff" transform="translate(495 96)" d="M0 0h97v32H0z"/></clipPath></defs></svg>
